X:1
T:Title
%%score { 1 | 2 }
L:1/8
M:3/4
K:C
V:1 treble nm="Grand Piano"
V:2 bass 
V:1
 z2 z2[Q:1/4=100] [EG]>[FA] | [EG]2 [Ec]2 E>F | E2 G2 D>[CE] | [B,F]3 [DF] [EG][DF] | %4
[M:2/4] [CE]4 |[M:1/4] [EG]>[FA] |[M:3/4] [EG]2 [Ec]2 E>F | E2 G2 G>[Ec] | B3 B c^F |[M:2/4] G4 | %10
[M:1/4] F>E |[M:3/4] F2 B2 A>G | [CEG]2 [EGc]2 [CGc]>d | e3 [Gc] dB |[M:2/4] [Ec]4 |] %15
V:2
 z2 z2 [C,C]>[C,C] | [C,C]2 [C,G,]2 [C,G,C]>[C,A,C] | [C,G,C]2 [C,E,C]2 [B,,G,]>[A,,G,] | %3
 [D,G,]3 [B,,G,] [G,,G,][G,,G,] |[M:2/4] [C,G,]4 |[M:1/4] [C,C]>[C,C] | %6
[M:3/4] [C,C]2 [C,G,]2 [C,G,C]>[C,A,C] | [C,G,C]2 [C,E,C]2 [C,E,C]>[C,G,] | %8
 [D,G,D]3 [D,G,D] [D,^F,D][D,CD] |[M:2/4][K:treble] [G,B,D]4 |[M:1/4] [G,B,D]>[G,B,D] | %11
[M:3/4] [G,B,D]2 [G,DF]2 [G,B,F]>[G,B,F] | C,2 C,2 E,>[K:treble][G,B,G] | %13
 [CG]3 [E,C] [G,B,F][G,F] |[M:2/4][K:bass] [C,G,]4 |] %15

